X:1
T:Title
%%score { 1 | ( 2 3 ) }
L:1/8
M:4/4
K:Ab
V:1 treble nm="Grand Piano"
V:2 bass 
V:3 bass 
V:1
 z4 z2[Q:1/4=106] E2 | F3 E C<E AB | [Ec]2 c4 =A2 | B2 F2 [FB]2 [Fc]2 |[M:3/4] [Fd]4 z2 | %5
[M:1/4] d2 |[M:4/4] [Gd]3 B FG c>G | B2 A4 e2 | e3 [EG] [=Dc]2 [DB]2 |[M:3/4] [G,E]6 | %10
[M:1/4] [G,E]2 |[M:4/4] [Ec]2 [=Ec]2 [Fc]2 [_Ec]2 | [Fc]>c [=Dc]>c [Ac]4 | %13
 [Ed]2 [Fd]2 [Gd]2 [Fd]2 | [Fd]>c [Ec]>_c [E=c]4 | [Ec]2 [=Ec]2 [Fc]2 [_Gc]2 | %16
 [Fe]>[Fd] [Fd]>[Fc] [Fd]2 [=EA]2 | c2 c2 c3 B |[M:3/4] [CA]6 |] %19
V:2
 z4 z2 E,2 | F,3 E, C,<E, A,[E,G,E] | [A,,A,]2 [A,E]4 [F,CE]2 | [B,D]2 [F,B,D]2 [D,B,]2 [C,=A,]2 | %4
[M:3/4] [B,,B,]4 z2 |[M:1/4] [B,F]2 |[M:4/4] [E,B,]3 B, F,G,[K:treble] C>G, | %7
 [A,D]2 [A,C]4 [=A,C_G]2 | [B,G]3[K:bass] [B,,B,] [B,,A,]2 [B,,A,]2 |[M:3/4] E,2 F,2 D,2 | %10
[M:1/4] z D |[M:4/4] A,,2 A,2 E,2 E,,2 | z z/ E/ z z/ E/ A,2 E,2 | B,,2 E,2 G,2 E,,2 | %14
 z z/ E/ z z/ =D/ A,2 E,2 | [A,,A,]2 [A,,A,]2 [A,,A,]2 [A,,A,]2 | %16
 [D,A,]>[D,A,] [D,A,]>[D,A,] [D,A,]2 [D,A,]2 | [E,A,E]2 [E,F,=D]2 [E,G,E]3 [E,_D] | %18
[M:3/4] [A,,E,]6 |] %19
V:3
 x8 | x8 | x8 | x8 |[M:3/4] x6 |[M:1/4] x2 |[M:4/4] x6[K:treble] x2 | x8 | x3[K:bass] x5 | %9
[M:3/4] x6 |[M:1/4] B,,2 |[M:4/4] x8 | A,,2 E,2 z4 | x8 | A,,2 E,2 z4 | x8 | x8 | x8 |[M:3/4] x6 |] %19

